test_waco/assets/benefits/home_office.svg

<svg fill="none" height="142" viewBox="0 0 153 142" width="153" xmlns="http://www.w3.org/2000/svg" xmlns:xlink="http://www.w3.org/1999/xlink"><filter id="a" color-interpolation-filters="sRGB" filterUnits="userSpaceOnUse" height="151.771" width="152.185" x=".669605" y="-10.1717"><feFlood flood-opacity="0" result="BackgroundImageFix"/><feColorMatrix in="SourceAlpha" result="hardAlpha" type="matrix" values="0 0 0 0 0 0 0 0 0 0 0 0 0 0 0 0 0 0 127 0"/><feMorphology in="SourceAlpha" operator="dilate" radius="2.9062" result="effect1_dropShadow"/><feOffset/><feGaussianBlur stdDeviation="3.63275"/><feColorMatrix type="matrix" values="0 0 0 0 0 0 0 0 0 1 0 0 0 0 0.407843 0 0 0 1 0"/><feBlend in2="BackgroundImageFix" mode="normal" result="effect1_dropShadow"/><feBlend in="SourceGraphic" in2="effect1_dropShadow" mode="normal" result="shape"/></filter><linearGradient id="b" gradientUnits="userSpaceOnUse" x1="10.8415" x2="142.682" y1="65.7179" y2="65.7179"><stop offset="0" stop-color="#8fff70"/><stop offset="1" stop-color="#8fffff"/></linearGradient><linearGradient id="c" gradientUnits="userSpaceOnUse" x1="43.8413" x2="110.841" y1="65.0877" y2="65.0877"><stop offset="0" stop-color="#8fff73"/><stop offset="1" stop-color="#8ffff9"/></linearGradient><clipPath id="d"><path d="m10.8413 0h131.841v131.427h-131.841z"/></clipPath><clipPath id="e"><path d="m43.8413 31h67v67h-67z"/></clipPath><g filter="url(#a)"><g clip-path="url(#d)"><path d="m78.4843 131.427c-.7341 0-1.4681-.018-2.2209-.056-8.5071-.471-16.4308-3.576-21.1737-8.319l-37.228-37.2468c-4.7052-4.7053-7.2649-12.3843-7.0014-21.0419.2635-8.3942 3.1996-16.2049 7.886-20.8726l15.0757-15.0756c.4328-.4329 1.1292-.4329 1.5621 0s.4329 1.1293 0 1.5621l-15.0756 15.0757c-4.2912 4.2912-6.9826 11.5373-7.2273 19.3668-.2447 7.9425 2.1268 15.1886 6.3427 19.4045l37.2468 37.2468c4.3665 4.367 11.7443 7.246 19.7244 7.679 8.0742.433 15.358-1.769 19.4986-5.91l15.5273-15.527c.433-.433 1.129-.433 1.562 0s.433 1.129 0 1.562l-15.5272 15.527c-4.2347 4.273-11.0667 6.625-18.9715 6.625zm48.3507-36.87c-.282 0-.564-.113-.79-.32-.433-.4329-.433-1.1293 0-1.5621l7.547-7.5473c4.178-4.1783 6.757-11.0479 6.87-18.3505.132-7.5096-2.259-14.2663-6.531-18.5575l-39.016-39.01601c-4.2724-4.27237-11.3867-6.8885-19.0281-6.9826-7.6225-.09411-14.6427 2.29616-18.7833 6.43679l-9.7493 9.74932c-.4329.4329-1.1293.4329-1.5622 0s-.4329-1.1293 0-1.5622l9.7493-9.74926c4.5359-4.55469 12.1584-7.208459 20.3644-7.09553261 8.3377.11292661 15.8285 2.89844261 20.5713 7.62251261l39.0159 39.01598c4.705 4.7053 7.321 12.0455 7.19 20.1573-.132 7.8672-2.955 15.3015-7.529 19.8939l-7.547 7.5472c-.207.207-.489.32-.772.32z" fill="url(#b)"/></g><g clip-path="url(#e)"><path d="m108.551 58.986h-3.873v-1.2894c0-1.2626-1.028-2.29-2.29-2.29h-2.8613c-1.2627 0-2.2901 1.0274-2.2901 2.29v1.2894h-2.9887l-2.2121-2.3598c-.5312-.5666-.8237-1.3062-.8237-2.0829v-1.623h8.4364c1.2625 0 2.2905-1.0274 2.2905-2.2901v-9.2504c0-.5421-.44-.9815-.982-.9815s-.9813.4394-.9813.9815v5.3379h-13.413v-.9933c0-3.4273-2.7885-6.2158-6.2158-6.2158h-4.8016v-6.2186c0-.1803.1468-.3271.3271-.3271h23.7761c.1803 0 .3272.1468.3272.3271v3.5673c0 .542.4393.9814.9813.9814s.982-.4394.982-.9814v-3.5673c0-1.2626-1.028-2.29-2.2905-2.29h-23.7761c-1.2627 0-2.29 1.0274-2.29 2.29v6.2185h-8.841c-3.4274 0-6.2158 2.7885-6.2158 6.2158v3.0464c0 .542.4394.9814.9814.9814s.9815-.4394.9815-.9814v-3.0464c0-2.345 1.9079-4.2529 4.2529-4.2529h15.6054c2.345 0 4.2529 1.9079 4.2529 4.2529v22.4693c0 .9021-.7337 1.6358-1.6358 1.6358h-7.0437v-4.4937c0-1.2627-1.0274-2.2901-2.2901-2.2901h-2.172c-1.2626 0-2.29 1.0274-2.29 2.2901v4.4937h-7.0439c-.902 0-1.6357-.7337-1.6357-1.6358v-14.712c0-.542-.4395-.9814-.9815-.9814s-.9814.4394-.9814.9814v5.5044h-2.2134v-6.8508c0-.6854-.5577-1.2431-1.2432-1.2431h-.2185v-3.1931c0-1.7101-1.3913-3.1014-3.1014-3.1014-1.71 0-3.1013 1.3913-3.1013 3.1014v3.1931h-.2186c-.6854 0-1.2431.5577-1.2431 1.2431v6.8508h-1.0548c-1.2626 0-2.29 1.0274-2.29 2.29v2.9294c0 1.2627 1.0274 2.2901 2.29 2.2901h1.0548v29.8688c0 .902.7337 1.6357 1.6357 1.6357h3.7766c.902 0 1.6358-.7337 1.6358-1.6357v-13.9497h4.2914v1.1472c0 .902.7337 1.6357 1.6357 1.6357h9.0068v.696l-8.3148 9.3862c-.4325.4882-.5348 1.1612-.2672 1.756s.8394.9643 1.4916.9643h3.2375c.4727 0 .922-.2044 1.2327-.5606l2.6202-3.0041v1.2745c0 1.2627 1.0274 2.2901 2.29 2.2901h2.172c1.2627 0 2.2901-1.0274 2.2901-2.2901v-1.2745l2.6203 3.0042c.3108.3561.76.5604 1.2326.5604h3.2374c.6524 0 1.224-.3696 1.4916-.9643.2676-.5948.1654-1.2678-.2673-1.756l-8.3148-9.3862v-.6959h9.0068c.902 0 1.6358-.7337 1.6358-1.6357v-1.1472h13.8854v13.9497c0 .902.734 1.6357 1.636 1.6357h3.777c.902 0 1.636-.7337 1.636-1.6357v-19.5664c0-.542-.44-.9814-.982-.9814s-.981.4394-.981.9814v19.2392h-3.123v-29.5416h3.123v5.5915c0 .542.439.9814.981.9814s.982-.4394.982-.9814v-5.5915h1.054c1.263 0 2.29-1.0274 2.29-2.2901v-2.9294c0-1.2626-1.027-2.29-2.29-2.29zm-9.3515-1.2894c0-.1803.1469-.3271.3272-.3271h2.8613c.18 0 .327.1468.327.3271v1.2894h-3.5155zm-8.5959.2721.9537 1.0173h-4.9946v-6.0657h2.6865v1.6231c0 1.2772.481 2.4937 1.3544 3.4253zm9.3721-9.2883v1.9498c0 .1803-.1469.3272-.3272.3272h-13.0858v-2.277zm-28.8447 16.6553c0-.1804.1468-.3272.3271-.3272h2.172c.1804 0 .3272.1468.3272.3272v10.219h-2.8263zm-21.982-12.4806h5.2003v1.8138h-5.2003zm1.4617-5.1561c0-.6278.5107-1.1385 1.1384-1.1385.6278 0 1.1385.5107 1.1385 1.1385v3.1931h-2.2769zm-1.4617 8.9328h5.2003v2.3542h-5.2003zm-3.3448 7.5736v-2.9294c0-.1803.1468-.3271.3271-.3271h12.3943v3.5837h-12.3943c-.1803 0-.3271-.1468-.3271-.3272zm6.4671 31.8317h-3.1223v-29.5416h3.1223zm1.9629-15.5853v-13.9563h4.2914v1.6981c0 1.9844 1.6142 3.5987 3.5986 3.5987h7.0439v3.7623h-6.1193c-.8747 0-1.7184.3181-2.3756.8956l-1.5916 1.3988c-.3533.3105-.5559.7583-.5559 1.2286v1.374h-4.2915zm10.9322 15.5853h-2.3617l6.3634-7.1834v2.5953zm17.1172 0h-2.3617l-4.0017-4.5881v-2.5953zm-8.3263-.3271c0 .1803-.1468.3271-.3272.3271h-2.172c-.1803 0-.3271-.1468-.3271-.3271v-10.5125h2.8263zm10.6425-12.4754h-9.6598c-.0004 0-.0007 0-.0013 0-.0005 0-.0008 0-.0013 0h-4.7866c-.0003 0-.0007 0-.0013 0-.0005 0-.0007 0-.0013 0h-9.6597v-4.0089l1.4804-1.301c.2987-.2625.6821-.4071 1.0798-.4071h18.9907c.3977 0 .7811.1446 1.0797.4071l1.4805 1.301v4.0089zm15.8482-2.7828h-13.8853v-1.3741c0-.4703-.2026-.9181-.5559-1.2286l-1.5916-1.3988c-.6571-.5776-1.5009-.8956-2.3756-.8956h-6.1194v-3.7623h7.0439c1.9843 0 3.5986-1.6143 3.5986-3.5986v-1.6982h13.8853zm8.103-19.5029c.181 0 .327.1468.327.3271v2.9294c0 .1804-.146.3272-.327.3272h-21.9883v-3.5837z" fill="url(#c)"/></g></g></svg>

<svg width="153" height="142" viewBox="0 0 153 142" fill="none" xmlns="http://www.w3.org/2000/svg">
<g filter="url(#filter0_d)">
<g clip-path="url(#clip0)">
<path d="M78.4843 131.427C77.7502 131.427 77.0162 131.409 76.2634 131.371C67.7563 130.9 59.8326 127.795 55.0897 123.052L17.8617 85.8052C13.1565 81.0999 10.5968 73.4209 10.8603 64.7633C11.1238 56.3691 14.0599 48.5584 18.7463 43.8907L33.822 28.8151C34.2548 28.3822 34.9512 28.3822 35.3841 28.8151C35.817 29.248 35.817 29.9444 35.3841 30.3772L20.3085 45.4529C16.0173 49.7441 13.3259 56.9902 13.0812 64.8197C12.8365 72.7622 15.208 80.0083 19.4239 84.2242L56.6707 121.471C61.0372 125.838 68.415 128.717 76.3951 129.15C84.4693 129.583 91.7531 127.381 95.8937 123.24L111.421 107.713C111.854 107.28 112.55 107.28 112.983 107.713C113.416 108.146 113.416 108.842 112.983 109.275L97.4558 124.802C93.2211 129.075 86.3891 131.427 78.4843 131.427ZM126.835 94.557C126.553 94.557 126.271 94.444 126.045 94.237C125.612 93.8041 125.612 93.1077 126.045 92.6749L133.592 85.1276C137.77 80.9493 140.349 74.0797 140.462 66.7771C140.594 59.2675 138.203 52.5108 133.931 48.2196L94.915 9.20359C90.6426 4.93122 83.5283 2.31509 75.8869 2.22099C68.2644 2.12688 61.2442 4.51715 57.1036 8.65778L47.3543 18.4071C46.9214 18.84 46.225 18.84 45.7921 18.4071C45.3592 17.9742 45.3592 17.2778 45.7921 16.8449L55.5414 7.09564C60.0773 2.54095 67.6998 -0.112819 75.9058 0.000107385C84.2435 0.113034 91.7343 2.89855 96.4771 7.62262L135.493 46.6386C140.198 51.3439 142.814 58.6841 142.683 66.7959C142.551 74.6631 139.728 82.0974 135.154 86.6898L127.607 94.237C127.4 94.444 127.118 94.557 126.835 94.557Z" fill="url(#paint0_linear)"/>
</g>
<g clip-path="url(#clip1)">
<path d="M108.551 58.986H104.678V57.6966C104.678 56.434 103.65 55.4066 102.388 55.4066H99.5267C98.264 55.4066 97.2366 56.434 97.2366 57.6966V58.986H94.2479L92.0358 56.6262C91.5046 56.0596 91.2121 55.32 91.2121 54.5433V52.9203H99.6485C100.911 52.9203 101.939 51.8929 101.939 50.6302V41.3798C101.939 40.8377 101.499 40.3983 100.957 40.3983C100.415 40.3983 99.9757 40.8377 99.9757 41.3798V46.7177H86.5627V45.7244C86.5627 42.2971 83.7742 39.5086 80.3469 39.5086H75.5453V33.29C75.5453 33.1097 75.6921 32.9629 75.8724 32.9629H99.6485C99.8288 32.9629 99.9757 33.1097 99.9757 33.29V36.8573C99.9757 37.3993 100.415 37.8387 100.957 37.8387C101.499 37.8387 101.939 37.3993 101.939 36.8573V33.29C101.939 32.0274 100.911 31 99.6485 31H75.8724C74.6097 31 73.5824 32.0274 73.5824 33.29V39.5085H64.7414C61.314 39.5085 58.5256 42.297 58.5256 45.7243V48.7707C58.5256 49.3127 58.965 49.7521 59.507 49.7521C60.049 49.7521 60.4885 49.3127 60.4885 48.7707V45.7243C60.4885 43.3793 62.3964 41.4714 64.7414 41.4714H80.3468C82.6918 41.4714 84.5997 43.3793 84.5997 45.7243V68.1936C84.5997 69.0957 83.866 69.8294 82.9639 69.8294H75.9202V65.3357C75.9202 64.073 74.8928 63.0456 73.6301 63.0456H71.4581C70.1955 63.0456 69.1681 64.073 69.1681 65.3357V69.8294H62.1242C61.2222 69.8294 60.4885 69.0957 60.4885 68.1936V53.4816C60.4885 52.9396 60.049 52.5002 59.507 52.5002C58.965 52.5002 58.5256 52.9396 58.5256 53.4816V58.986H56.3122V52.1352C56.3122 51.4498 55.7545 50.8921 55.069 50.8921H54.8505V47.699C54.8505 45.9889 53.4592 44.5976 51.7491 44.5976C50.0391 44.5976 48.6478 45.9889 48.6478 47.699V50.8921H48.4292C47.7438 50.8921 47.1861 51.4498 47.1861 52.1352V58.986H46.1313C44.8687 58.986 43.8413 60.0134 43.8413 61.276V64.2054C43.8413 65.4681 44.8687 66.4955 46.1313 66.4955H47.1861V96.3643C47.1861 97.2663 47.9198 98 48.8218 98H52.5984C53.5004 98 54.2342 97.2663 54.2342 96.3643V82.4146H58.5256V83.5618C58.5256 84.4638 59.2593 85.1975 60.1613 85.1975H69.1681V85.8935L60.8533 95.2797C60.4208 95.7679 60.3185 96.4409 60.5861 97.0357C60.8537 97.6305 61.4255 98 62.0777 98H65.3152C65.7879 98 66.2372 97.7956 66.5479 97.4394L69.1681 94.4353V95.7098C69.1681 96.9725 70.1955 97.9999 71.4581 97.9999H73.6301C74.8928 97.9999 75.9202 96.9725 75.9202 95.7098V94.4353L78.5405 97.4395C78.8513 97.7956 79.3005 97.9999 79.7731 97.9999H83.0105C83.6629 97.9999 84.2345 97.6303 84.5021 97.0356C84.7697 96.4408 84.6675 95.7678 84.2348 95.2796L75.92 85.8934V85.1975H84.9268C85.8288 85.1975 86.5626 84.4638 86.5626 83.5618V82.4146H100.448V96.3643C100.448 97.2663 101.182 98 102.084 98H105.861C106.763 98 107.497 97.2663 107.497 96.3643V76.7979C107.497 76.2559 107.057 75.8165 106.515 75.8165C105.973 75.8165 105.534 76.2559 105.534 76.7979V96.0371H102.411V66.4955H105.534V72.087C105.534 72.629 105.973 73.0684 106.515 73.0684C107.057 73.0684 107.497 72.629 107.497 72.087V66.4955H108.551C109.814 66.4955 110.841 65.4681 110.841 64.2054V61.276C110.841 60.0134 109.814 58.986 108.551 58.986ZM99.1995 57.6966C99.1995 57.5163 99.3464 57.3695 99.5267 57.3695H102.388C102.568 57.3695 102.715 57.5163 102.715 57.6966V58.986H99.1995V57.6966ZM90.6036 57.9687L91.5573 58.986H86.5627V52.9203H89.2492V54.5434C89.2492 55.8206 89.7302 57.0371 90.6036 57.9687ZM99.9757 48.6804V50.6302C99.9757 50.8105 99.8288 50.9574 99.6485 50.9574H86.5627V48.6804H99.9757ZM71.131 65.3357C71.131 65.1553 71.2778 65.0085 71.4581 65.0085H73.6301C73.8105 65.0085 73.9573 65.1553 73.9573 65.3357V75.5547H71.131V65.3357ZM49.149 52.8551H54.3493V54.6689H49.149V52.8551ZM50.6107 47.699C50.6107 47.0712 51.1214 46.5605 51.7491 46.5605C52.3769 46.5605 52.8876 47.0712 52.8876 47.699V50.8921H50.6107V47.699ZM49.149 56.6318H54.3493V58.986H49.149V56.6318ZM45.8042 64.2054V61.276C45.8042 61.0957 45.951 60.9489 46.1313 60.9489H58.5256V64.5326H46.1313C45.951 64.5326 45.8042 64.3858 45.8042 64.2054ZM52.2713 96.0371H49.149V66.4955H52.2713V96.0371ZM54.2342 80.4518V66.4955H58.5256V68.1936C58.5256 70.178 60.1398 71.7923 62.1242 71.7923H69.1681V75.5546H63.0488C62.1741 75.5546 61.3304 75.8727 60.6732 76.4502L59.0816 77.849C58.7283 78.1595 58.5257 78.6073 58.5257 79.0776V80.4516H54.2342V80.4518ZM65.1664 96.0371H62.8047L69.1681 88.8537V91.449L65.1664 96.0371ZM82.2836 96.0371H79.9219L75.9202 91.449V88.8537L82.2836 96.0371ZM73.9573 95.71C73.9573 95.8903 73.8105 96.0371 73.6301 96.0371H71.4581C71.2778 96.0371 71.131 95.8903 71.131 95.71V85.1975H73.9573V95.71ZM84.5998 83.2346H74.94C74.9396 83.2346 74.9393 83.2346 74.9387 83.2346C74.9382 83.2346 74.9379 83.2346 74.9374 83.2346H70.1508C70.1505 83.2346 70.1501 83.2346 70.1495 83.2346C70.149 83.2346 70.1488 83.2346 70.1482 83.2346H60.4885V79.2257L61.9689 77.9247C62.2676 77.6622 62.651 77.5176 63.0487 77.5176H82.0394C82.4371 77.5176 82.8205 77.6622 83.1191 77.9247L84.5996 79.2257V83.2346H84.5998ZM100.448 80.4518H86.5627V79.0777C86.5627 78.6074 86.3601 78.1596 86.0068 77.8491L84.4152 76.4503C83.7581 75.8727 82.9143 75.5547 82.0396 75.5547H75.9202V71.7924H82.9641C84.9484 71.7924 86.5627 70.1781 86.5627 68.1938V66.4956H100.448V80.4518ZM108.551 60.9489C108.732 60.9489 108.878 61.0957 108.878 61.276V64.2054C108.878 64.3858 108.732 64.5326 108.551 64.5326H86.5627V60.9489H108.551Z" fill="url(#paint1_linear)"/>
</g>
</g>
<defs>
<filter id="filter0_d" x="0.669605" y="-10.1717" width="152.185" height="151.771" filterUnits="userSpaceOnUse" color-interpolation-filters="sRGB">
<feFlood flood-opacity="0" result="BackgroundImageFix"/>
<feColorMatrix in="SourceAlpha" type="matrix" values="0 0 0 0 0 0 0 0 0 0 0 0 0 0 0 0 0 0 127 0" result="hardAlpha"/>
<feMorphology radius="2.9062" operator="dilate" in="SourceAlpha" result="effect1_dropShadow"/>
<feOffset/>
<feGaussianBlur stdDeviation="3.63275"/>
<feColorMatrix type="matrix" values="0 0 0 0 0 0 0 0 0 1 0 0 0 0 0.407843 0 0 0 1 0"/>
<feBlend mode="normal" in2="BackgroundImageFix" result="effect1_dropShadow"/>
<feBlend mode="normal" in="SourceGraphic" in2="effect1_dropShadow" result="shape"/>
</filter>
<linearGradient id="paint0_linear" x1="10.8415" y1="65.7179" x2="142.682" y2="65.7179" gradientUnits="userSpaceOnUse">
<stop stop-color="#8FFF70"/>
<stop offset="1" stop-color="#8FFFFF"/>
</linearGradient>
<linearGradient id="paint1_linear" x1="43.8413" y1="65.0877" x2="110.841" y2="65.0877" gradientUnits="userSpaceOnUse">
<stop stop-color="#8FFF73"/>
<stop offset="1" stop-color="#8FFFF9"/>
</linearGradient>
<clipPath id="clip0">
<rect width="131.841" height="131.427" fill="white" transform="translate(10.8413)"/>
</clipPath>
<clipPath id="clip1">
<rect width="67" height="67" fill="white" transform="translate(43.8413 31)"/>
</clipPath>
</defs>
</svg>
